X:264
T:B264-  King William's March, or Hark, Hark and Yonder
Q:1/4=120
M:C
L:1/4
K:G
d2de|d2B2|d3/2e/2d3/2e/2|d2B2|\
dB/2c/2dB/2c/2|dB/2c/2de/2f/2|g(f/2e/2)d(c/2B/2)|A2D2||\
A3/2B/2A3/2B/2|A2D2|GBd2|dBd2|\
egd(c/2B/2)|(c/2B/2) (A/2G/2)A2|GBd(c/2B/2)|\
A2G2|Bcde|A2G2|]
